X:7014
T:Glorishears
T:Leapfrog
R:Jig
C:Trad.
O:England, Oxfordshire, Field Town
Z:Paul Hardy's Session Tunebook 2015 (see www.paulhardy.net). Creative Commons cc by-nc-sa licenced.
M:6/8
L:1/8
Q:3/8=60
K:G
d/c/|"G"B>AG "Em"GFG|"Am"A>BA "D"D2F|"Am"A>BA "D7"Adc|"G"B>AB GAB|
"C"c>de "G"dBc|"D"d>ef "C"g2 g/f/|"Em"e>dc "D7"BcA|"G"G>AF G2:|
|:c/d/|"C"e2d "D"dAB|"C"c>dc "Am"cAB|"C"c>de "Am"edc|"G"G>AG "D"F>ED|
"C"G2g "G"g>fg|"C"G2g "G"g2g/f/|"Am"e>dc "D7"BcA|"G"G3-G2:|

